images/3232737.svg

<?xml version="1.0" encoding="UTF-8"?>
<svg xmlns="http://www.w3.org/2000/svg" xmlns:xlink="http://www.w3.org/1999/xlink" width="300pt" height="300pt" viewBox="0 0 300 300" version="1.1">
<defs>
<g>
<symbol overflow="visible" id="glyph0-0">
<path style="stroke:none;" d="M 0.453125 1.59375 L 0.453125 -6.34375 L 4.953125 -6.34375 L 4.953125 1.59375 Z M 0.953125 1.09375 L 4.453125 1.09375 L 4.453125 -5.84375 L 0.953125 -5.84375 Z M 0.953125 1.09375 "/>
</symbol>
<symbol overflow="visible" id="glyph0-1">
<path style="stroke:none;" d="M 0.890625 -6.5625 L 2.078125 -6.5625 L 4.984375 -1.078125 L 4.984375 -6.5625 L 5.84375 -6.5625 L 5.84375 0 L 4.65625 0 L 1.75 -5.484375 L 1.75 0 L 0.890625 0 Z M 0.890625 -6.5625 "/>
</symbol>
<symbol overflow="visible" id="glyph0-2">
<path style="stroke:none;" d="M 3.546875 -5.953125 C 2.898438 -5.953125 2.382812 -5.710938 2 -5.234375 C 1.625 -4.753906 1.4375 -4.101562 1.4375 -3.28125 C 1.4375 -2.445312 1.625 -1.789062 2 -1.3125 C 2.382812 -0.832031 2.898438 -0.59375 3.546875 -0.59375 C 4.191406 -0.59375 4.703125 -0.832031 5.078125 -1.3125 C 5.453125 -1.789062 5.640625 -2.445312 5.640625 -3.28125 C 5.640625 -4.101562 5.453125 -4.753906 5.078125 -5.234375 C 4.703125 -5.710938 4.191406 -5.953125 3.546875 -5.953125 Z M 3.546875 -6.6875 C 4.460938 -6.6875 5.195312 -6.375 5.75 -5.75 C 6.300781 -5.132812 6.578125 -4.3125 6.578125 -3.28125 C 6.578125 -2.238281 6.300781 -1.410156 5.75 -0.796875 C 5.195312 -0.179688 4.460938 0.125 3.546875 0.125 C 2.617188 0.125 1.878906 -0.179688 1.328125 -0.796875 C 0.773438 -1.410156 0.5 -2.238281 0.5 -3.28125 C 0.5 -4.3125 0.773438 -5.132812 1.328125 -5.75 C 1.878906 -6.375 2.617188 -6.6875 3.546875 -6.6875 Z M 3.546875 -6.6875 "/>
</symbol>
<symbol overflow="visible" id="glyph0-3">
<path style="stroke:none;" d="M 0.890625 -6.5625 L 1.765625 -6.5625 L 1.765625 -3.875 L 5 -3.875 L 5 -6.5625 L 5.890625 -6.5625 L 5.890625 0 L 5 0 L 5 -3.125 L 1.765625 -3.125 L 1.765625 0 L 0.890625 0 Z M 0.890625 -6.5625 "/>
</symbol>
</g>
</defs>
<g id="surface33069">
<rect x="0" y="0" width="300" height="300" style="fill:rgb(100%,100%,100%);fill-opacity:1;stroke:none;"/>
<path style="fill:none;stroke-width:1.2;stroke-linecap:butt;stroke-linejoin:miter;stroke:rgb(0%,0%,0%);stroke-opacity:1;stroke-miterlimit:10;" d="M 35.25 213.929688 L 40.519531 205.28125 "/>
<path style="fill:none;stroke-width:1.2;stroke-linecap:butt;stroke-linejoin:miter;stroke:rgb(0%,0%,100%);stroke-opacity:1;stroke-miterlimit:10;" d="M 40.519531 205.28125 L 45.789062 196.636719 "/>
<path style="fill:none;stroke-width:1.2;stroke-linecap:butt;stroke-linejoin:miter;stroke:rgb(0%,0%,100%);stroke-opacity:1;stroke-miterlimit:10;" d="M 45.789062 196.636719 L 40.9375 187.75 "/>
<path style="fill:none;stroke-width:1.2;stroke-linecap:butt;stroke-linejoin:miter;stroke:rgb(0%,0%,0%);stroke-opacity:1;stroke-miterlimit:10;" d="M 40.9375 187.75 L 36.085938 178.863281 "/>
<path style="fill:none;stroke-width:1.2;stroke-linecap:butt;stroke-linejoin:miter;stroke:rgb(0%,0%,100%);stroke-opacity:1;stroke-miterlimit:10;" d="M 45.789062 196.636719 L 55.910156 196.878906 "/>
<path style="fill:none;stroke-width:1.2;stroke-linecap:butt;stroke-linejoin:miter;stroke:rgb(0%,0%,0%);stroke-opacity:1;stroke-miterlimit:10;" d="M 55.910156 196.878906 L 66.035156 197.121094 "/>
<path style=" stroke:none;fill-rule:nonzero;fill:rgb(100%,100%,100%);fill-opacity:1;" d="M 42.789062 191.136719 L 49.789062 191.136719 L 49.789062 202.136719 L 42.789062 202.136719 Z M 42.789062 191.136719 "/>
<g style="fill:rgb(0%,0%,100%);fill-opacity:1;">
  <use xlink:href="#glyph0-1" x="42.789062" y="199.799805"/>
</g>
<path style="fill:none;stroke-width:1.2;stroke-linecap:butt;stroke-linejoin:miter;stroke:rgb(0%,0%,0%);stroke-opacity:1;stroke-miterlimit:10;" d="M 63.941406 198.261719 L 68.796875 207.148438 "/>
<path style="fill:none;stroke-width:1.2;stroke-linecap:butt;stroke-linejoin:miter;stroke:rgb(100%,0%,0%);stroke-opacity:1;stroke-miterlimit:10;" d="M 68.796875 207.148438 L 73.648438 216.035156 "/>
<path style="fill:none;stroke-width:1.2;stroke-linecap:butt;stroke-linejoin:miter;stroke:rgb(0%,0%,0%);stroke-opacity:1;stroke-miterlimit:10;" d="M 68.125 195.980469 L 72.976562 204.867188 "/>
<path style="fill:none;stroke-width:1.2;stroke-linecap:butt;stroke-linejoin:miter;stroke:rgb(100%,0%,0%);stroke-opacity:1;stroke-miterlimit:10;" d="M 72.976562 204.867188 L 77.828125 213.753906 "/>
<path style="fill:none;stroke-width:1.2;stroke-linecap:butt;stroke-linejoin:miter;stroke:rgb(0%,0%,0%);stroke-opacity:1;stroke-miterlimit:10;" d="M 66.035156 197.121094 L 76.574219 179.832031 "/>
<path style=" stroke:none;fill-rule:nonzero;fill:rgb(100%,100%,100%);fill-opacity:1;" d="M 71.738281 209.394531 L 79.738281 209.394531 L 79.738281 220.394531 L 71.738281 220.394531 Z M 71.738281 209.394531 "/>
<g style="fill:rgb(100%,0%,0%);fill-opacity:1;">
  <use xlink:href="#glyph0-2" x="71.738281" y="218.057617"/>
</g>
<path style="fill:none;stroke-width:1.2;stroke-linecap:butt;stroke-linejoin:miter;stroke:rgb(0%,0%,0%);stroke-opacity:1;stroke-miterlimit:10;" d="M 76.574219 179.832031 L 66.871094 162.058594 "/>
<path style="fill:none;stroke-width:1.2;stroke-linecap:butt;stroke-linejoin:miter;stroke:rgb(0%,0%,0%);stroke-opacity:1;stroke-miterlimit:10;" d="M 79.785156 175.769531 L 72.023438 161.550781 "/>
<path style="fill:none;stroke-width:1.2;stroke-linecap:butt;stroke-linejoin:miter;stroke:rgb(0%,0%,0%);stroke-opacity:1;stroke-miterlimit:10;" d="M 96.816406 180.3125 L 76.574219 179.832031 "/>
<path style="fill:none;stroke-width:1.2;stroke-linecap:butt;stroke-linejoin:miter;stroke:rgb(0%,0%,0%);stroke-opacity:1;stroke-miterlimit:10;" d="M 66.871094 162.058594 L 77.410156 144.765625 "/>
<path style="fill:none;stroke-width:1.2;stroke-linecap:butt;stroke-linejoin:miter;stroke:rgb(0%,0%,0%);stroke-opacity:1;stroke-miterlimit:10;" d="M 77.410156 144.765625 L 97.65625 145.25 "/>
<path style="fill:none;stroke-width:1.2;stroke-linecap:butt;stroke-linejoin:miter;stroke:rgb(0%,0%,0%);stroke-opacity:1;stroke-miterlimit:10;" d="M 79.320312 149.578125 L 95.515625 149.964844 "/>
<path style="fill:none;stroke-width:1.2;stroke-linecap:butt;stroke-linejoin:miter;stroke:rgb(0%,0%,0%);stroke-opacity:1;stroke-miterlimit:10;" d="M 97.65625 145.25 L 107.359375 163.023438 "/>
<path style="fill:none;stroke-width:1.2;stroke-linecap:butt;stroke-linejoin:miter;stroke:rgb(0%,0%,0%);stroke-opacity:1;stroke-miterlimit:10;" d="M 97.65625 145.25 L 108.195312 127.960938 "/>
<path style="fill:none;stroke-width:1.2;stroke-linecap:butt;stroke-linejoin:miter;stroke:rgb(0%,0%,0%);stroke-opacity:1;stroke-miterlimit:10;" d="M 107.359375 163.023438 L 96.816406 180.3125 "/>
<path style="fill:none;stroke-width:1.2;stroke-linecap:butt;stroke-linejoin:miter;stroke:rgb(0%,0%,0%);stroke-opacity:1;stroke-miterlimit:10;" d="M 102.234375 162.273438 L 93.804688 176.105469 "/>
<path style="fill:none;stroke-width:1.2;stroke-linecap:butt;stroke-linejoin:miter;stroke:rgb(0%,0%,0%);stroke-opacity:1;stroke-miterlimit:10;" d="M 108.195312 127.960938 L 128.4375 128.441406 "/>
<path style="fill:none;stroke-width:1.2;stroke-linecap:butt;stroke-linejoin:miter;stroke:rgb(0%,0%,0%);stroke-opacity:1;stroke-miterlimit:10;" d="M 110.332031 123.246094 L 126.527344 123.628906 "/>
<path style="fill:none;stroke-width:1.2;stroke-linecap:butt;stroke-linejoin:miter;stroke:rgb(0%,0%,0%);stroke-opacity:1;stroke-miterlimit:10;" d="M 98.492188 110.1875 L 108.195312 127.960938 "/>
<path style="fill:none;stroke-width:1.2;stroke-linecap:butt;stroke-linejoin:miter;stroke:rgb(0%,0%,0%);stroke-opacity:1;stroke-miterlimit:10;" d="M 128.4375 128.441406 L 138.980469 111.152344 "/>
<path style="fill:none;stroke-width:1.2;stroke-linecap:butt;stroke-linejoin:miter;stroke:rgb(0%,0%,0%);stroke-opacity:1;stroke-miterlimit:10;" d="M 138.980469 111.152344 L 129.273438 93.378906 "/>
<path style="fill:none;stroke-width:1.2;stroke-linecap:butt;stroke-linejoin:miter;stroke:rgb(0%,0%,0%);stroke-opacity:1;stroke-miterlimit:10;" d="M 142.191406 107.089844 L 134.425781 92.871094 "/>
<path style="fill:none;stroke-width:1.2;stroke-linecap:butt;stroke-linejoin:miter;stroke:rgb(0%,0%,0%);stroke-opacity:1;stroke-miterlimit:10;" d="M 159.222656 111.632812 L 138.980469 111.152344 "/>
<path style="fill:none;stroke-width:1.2;stroke-linecap:butt;stroke-linejoin:miter;stroke:rgb(0%,0%,0%);stroke-opacity:1;stroke-miterlimit:10;" d="M 129.273438 93.378906 L 109.03125 92.894531 "/>
<path style="fill:none;stroke-width:1.2;stroke-linecap:butt;stroke-linejoin:miter;stroke:rgb(0%,0%,0%);stroke-opacity:1;stroke-miterlimit:10;" d="M 129.273438 93.378906 L 134.542969 84.734375 "/>
<path style="fill:none;stroke-width:1.2;stroke-linecap:butt;stroke-linejoin:miter;stroke:rgb(0%,0%,100%);stroke-opacity:1;stroke-miterlimit:10;" d="M 134.542969 84.734375 L 139.816406 76.089844 "/>
<path style="fill:none;stroke-width:1.2;stroke-linecap:butt;stroke-linejoin:miter;stroke:rgb(0%,0%,0%);stroke-opacity:1;stroke-miterlimit:10;" d="M 109.03125 92.894531 L 98.492188 110.1875 "/>
<path style="fill:none;stroke-width:1.2;stroke-linecap:butt;stroke-linejoin:miter;stroke:rgb(0%,0%,0%);stroke-opacity:1;stroke-miterlimit:10;" d="M 112.046875 97.105469 L 103.613281 110.9375 "/>
<path style="fill:none;stroke-width:1.2;stroke-linecap:butt;stroke-linejoin:miter;stroke:rgb(0%,0%,100%);stroke-opacity:1;stroke-miterlimit:10;" d="M 139.816406 76.089844 L 149.9375 76.328125 "/>
<path style="fill:none;stroke-width:1.2;stroke-linecap:butt;stroke-linejoin:miter;stroke:rgb(0%,0%,0%);stroke-opacity:1;stroke-miterlimit:10;" d="M 149.9375 76.328125 L 160.058594 76.570312 "/>
<path style="fill:none;stroke-width:1.2;stroke-linecap:butt;stroke-linejoin:miter;stroke:rgb(0%,0%,100%);stroke-opacity:1;stroke-miterlimit:10;" d="M 141.726562 80.898438 L 149.824219 81.09375 "/>
<path style="fill:none;stroke-width:1.2;stroke-linecap:butt;stroke-linejoin:miter;stroke:rgb(0%,0%,0%);stroke-opacity:1;stroke-miterlimit:10;" d="M 149.824219 81.09375 L 157.921875 81.285156 "/>
<path style=" stroke:none;fill-rule:nonzero;fill:rgb(100%,100%,100%);fill-opacity:1;" d="M 136.816406 70.589844 L 143.816406 70.589844 L 143.816406 81.589844 L 136.816406 81.589844 Z M 136.816406 70.589844 "/>
<g style="fill:rgb(0%,0%,100%);fill-opacity:1;">
  <use xlink:href="#glyph0-1" x="136.816406" y="79.25293"/>
</g>
<path style="fill:none;stroke-width:1.2;stroke-linecap:butt;stroke-linejoin:miter;stroke:rgb(0%,0%,0%);stroke-opacity:1;stroke-miterlimit:10;" d="M 160.058594 76.570312 L 164.910156 85.457031 "/>
<path style="fill:none;stroke-width:1.2;stroke-linecap:butt;stroke-linejoin:miter;stroke:rgb(0%,0%,100%);stroke-opacity:1;stroke-miterlimit:10;" d="M 164.910156 85.457031 L 169.761719 94.34375 "/>
<path style="fill:none;stroke-width:1.2;stroke-linecap:butt;stroke-linejoin:miter;stroke:rgb(0%,0%,100%);stroke-opacity:1;stroke-miterlimit:10;" d="M 169.761719 94.34375 L 164.492188 102.988281 "/>
<path style="fill:none;stroke-width:1.2;stroke-linecap:butt;stroke-linejoin:miter;stroke:rgb(0%,0%,0%);stroke-opacity:1;stroke-miterlimit:10;" d="M 164.492188 102.988281 L 159.222656 111.632812 "/>
<path style="fill:none;stroke-width:1.2;stroke-linecap:butt;stroke-linejoin:miter;stroke:rgb(0%,0%,100%);stroke-opacity:1;stroke-miterlimit:10;" d="M 164.640625 93.59375 L 160.425781 100.507812 "/>
<path style="fill:none;stroke-width:1.2;stroke-linecap:butt;stroke-linejoin:miter;stroke:rgb(0%,0%,0%);stroke-opacity:1;stroke-miterlimit:10;" d="M 160.425781 100.507812 L 156.207031 107.425781 "/>
<path style=" stroke:none;fill-rule:nonzero;fill:rgb(100%,100%,100%);fill-opacity:1;" d="M 166.761719 88.84375 L 173.761719 88.84375 L 173.761719 99.84375 L 166.761719 99.84375 Z M 166.761719 88.84375 "/>
<g style="fill:rgb(0%,0%,100%);fill-opacity:1;">
  <use xlink:href="#glyph0-1" x="166.761719" y="97.506836"/>
</g>
<path style="fill:none;stroke-width:1.2;stroke-linecap:butt;stroke-linejoin:miter;stroke:rgb(0%,0%,0%);stroke-opacity:1;stroke-miterlimit:10;" d="M 159.222656 111.632812 L 164.074219 120.519531 "/>
<path style="fill:none;stroke-width:1.2;stroke-linecap:butt;stroke-linejoin:miter;stroke:rgb(0%,0%,100%);stroke-opacity:1;stroke-miterlimit:10;" d="M 164.074219 120.519531 L 168.925781 129.40625 "/>
<path style="fill:none;stroke-width:1.2;stroke-linecap:butt;stroke-linejoin:miter;stroke:rgb(0%,0%,100%);stroke-opacity:1;stroke-miterlimit:10;" d="M 168.925781 129.40625 L 179.046875 129.648438 "/>
<path style="fill:none;stroke-width:1.2;stroke-linecap:butt;stroke-linejoin:miter;stroke:rgb(0%,0%,0%);stroke-opacity:1;stroke-miterlimit:10;" d="M 179.046875 129.648438 L 189.171875 129.890625 "/>
<path style=" stroke:none;fill-rule:nonzero;fill:rgb(100%,100%,100%);fill-opacity:1;" d="M 161.925781 123.90625 L 175.925781 123.90625 L 175.925781 134.90625 L 161.925781 134.90625 Z M 161.925781 123.90625 "/>
<g style="fill:rgb(0%,0%,100%);fill-opacity:1;">
  <use xlink:href="#glyph0-1" x="161.925781" y="132.569336"/>
  <use xlink:href="#glyph0-3" x="168.90332" y="132.569336"/>
</g>
<path style="fill:none;stroke-width:1.2;stroke-linecap:butt;stroke-linejoin:miter;stroke:rgb(0%,0%,0%);stroke-opacity:1;stroke-miterlimit:10;" d="M 189.171875 129.890625 L 198.875 147.664062 "/>
<path style="fill:none;stroke-width:1.2;stroke-linecap:butt;stroke-linejoin:miter;stroke:rgb(0%,0%,0%);stroke-opacity:1;stroke-miterlimit:10;" d="M 198.875 147.664062 L 219.117188 148.148438 "/>
<path style="fill:none;stroke-width:1.2;stroke-linecap:butt;stroke-linejoin:miter;stroke:rgb(0%,0%,0%);stroke-opacity:1;stroke-miterlimit:10;" d="M 219.117188 148.148438 L 231.40625 132.054688 "/>
<path style="fill:none;stroke-width:1.2;stroke-linecap:butt;stroke-linejoin:miter;stroke:rgb(0%,0%,0%);stroke-opacity:1;stroke-miterlimit:10;" d="M 224.132812 149.429688 L 233.964844 136.554688 "/>
<path style="fill:none;stroke-width:1.2;stroke-linecap:butt;stroke-linejoin:miter;stroke:rgb(0%,0%,0%);stroke-opacity:1;stroke-miterlimit:10;" d="M 230.625 164.808594 L 219.117188 148.148438 "/>
<path style="fill:none;stroke-width:1.2;stroke-linecap:butt;stroke-linejoin:miter;stroke:rgb(0%,0%,0%);stroke-opacity:1;stroke-miterlimit:10;" d="M 231.40625 132.054688 L 240.960938 135.410156 "/>
<path style="fill:none;stroke-width:1.2;stroke-linecap:butt;stroke-linejoin:miter;stroke:rgb(0%,0%,100%);stroke-opacity:1;stroke-miterlimit:10;" d="M 240.960938 135.410156 L 250.511719 138.769531 "/>
<path style="fill:none;stroke-width:1.2;stroke-linecap:butt;stroke-linejoin:miter;stroke:rgb(0%,0%,100%);stroke-opacity:1;stroke-miterlimit:10;" d="M 250.511719 138.769531 L 250.269531 148.890625 "/>
<path style="fill:none;stroke-width:1.2;stroke-linecap:butt;stroke-linejoin:miter;stroke:rgb(0%,0%,0%);stroke-opacity:1;stroke-miterlimit:10;" d="M 250.269531 148.890625 L 250.027344 159.011719 "/>
<path style=" stroke:none;fill-rule:nonzero;fill:rgb(100%,100%,100%);fill-opacity:1;" d="M 243.511719 133.269531 L 257.511719 133.269531 L 257.511719 144.269531 L 243.511719 144.269531 Z M 243.511719 133.269531 "/>
<g style="fill:rgb(0%,0%,100%);fill-opacity:1;">
  <use xlink:href="#glyph0-1" x="243.511719" y="141.932617"/>
  <use xlink:href="#glyph0-3" x="250.489258" y="141.932617"/>
</g>
<path style="fill:none;stroke-width:1.2;stroke-linecap:butt;stroke-linejoin:miter;stroke:rgb(0%,0%,0%);stroke-opacity:1;stroke-miterlimit:10;" d="M 250.027344 159.011719 L 230.625 164.808594 "/>
<path style="fill:none;stroke-width:1.2;stroke-linecap:butt;stroke-linejoin:miter;stroke:rgb(0%,0%,0%);stroke-opacity:1;stroke-miterlimit:10;" d="M 249.453125 164.15625 L 233.929688 168.792969 "/>
<path style="fill:none;stroke-width:1.2;stroke-linecap:butt;stroke-linejoin:miter;stroke:rgb(0%,0%,0%);stroke-opacity:1;stroke-miterlimit:10;" d="M 264.75 172.917969 L 250.027344 159.011719 "/>
<path style="fill:none;stroke-width:1.2;stroke-linecap:butt;stroke-linejoin:miter;stroke:rgb(0%,0%,0%);stroke-opacity:1;stroke-miterlimit:10;" d="M 230.625 164.808594 L 225.945312 184.507812 "/>
<path style="fill:none;stroke-width:1.2;stroke-linecap:butt;stroke-linejoin:miter;stroke:rgb(0%,0%,0%);stroke-opacity:1;stroke-miterlimit:10;" d="M 225.945312 184.507812 L 240.667969 198.414062 "/>
<path style="fill:none;stroke-width:1.2;stroke-linecap:butt;stroke-linejoin:miter;stroke:rgb(0%,0%,0%);stroke-opacity:1;stroke-miterlimit:10;" d="M 230.6875 182.4375 L 242.464844 193.558594 "/>
<path style="fill:none;stroke-width:1.2;stroke-linecap:butt;stroke-linejoin:miter;stroke:rgb(0%,0%,0%);stroke-opacity:1;stroke-miterlimit:10;" d="M 240.667969 198.414062 L 260.070312 192.617188 "/>
<path style="fill:none;stroke-width:1.2;stroke-linecap:butt;stroke-linejoin:miter;stroke:rgb(0%,0%,0%);stroke-opacity:1;stroke-miterlimit:10;" d="M 240.667969 198.414062 L 238.324219 208.265625 "/>
<path style="fill:none;stroke-width:1.2;stroke-linecap:butt;stroke-linejoin:miter;stroke:rgb(100%,0%,0%);stroke-opacity:1;stroke-miterlimit:10;" d="M 238.324219 208.265625 L 235.984375 218.113281 "/>
<path style="fill:none;stroke-width:1.2;stroke-linecap:butt;stroke-linejoin:miter;stroke:rgb(0%,0%,0%);stroke-opacity:1;stroke-miterlimit:10;" d="M 260.070312 192.617188 L 264.75 172.917969 "/>
<path style="fill:none;stroke-width:1.2;stroke-linecap:butt;stroke-linejoin:miter;stroke:rgb(0%,0%,0%);stroke-opacity:1;stroke-miterlimit:10;" d="M 255.902344 189.546875 L 259.644531 173.785156 "/>
<path style="fill:none;stroke-width:1.2;stroke-linecap:butt;stroke-linejoin:miter;stroke:rgb(100%,0%,0%);stroke-opacity:1;stroke-miterlimit:10;" d="M 235.984375 218.113281 L 226.285156 221.011719 "/>
<path style="fill:none;stroke-width:1.2;stroke-linecap:butt;stroke-linejoin:miter;stroke:rgb(0%,0%,0%);stroke-opacity:1;stroke-miterlimit:10;" d="M 226.285156 221.011719 L 216.582031 223.910156 "/>
<path style=" stroke:none;fill-rule:nonzero;fill:rgb(100%,100%,100%);fill-opacity:1;" d="M 231.984375 212.613281 L 239.984375 212.613281 L 239.984375 223.613281 L 231.984375 223.613281 Z M 231.984375 212.613281 "/>
<g style="fill:rgb(100%,0%,0%);fill-opacity:1;">
  <use xlink:href="#glyph0-2" x="231.984375" y="221.276367"/>
</g>
</g>
</svg>

<svg xmlns="http://www.w3.org/2000/svg" xmlns:xlink="http://www.w3.org/1999/xlink" width="300pt" height="300pt" viewBox="0 0 300 300"><defs><symbol overflow="visible"><path d="M.453 1.594v-7.938h4.5v7.938zm.5-.5h3.5v-6.938h-3.5zm0 0"/></symbol><symbol overflow="visible" id="a"><path d="M.89-6.563H2.08l2.906 5.485v-5.484h.86V0H4.656L1.75-5.484V0H.89zm0 0"/></symbol><symbol overflow="visible" id="b"><path d="M3.547-5.953c-.65 0-1.164.242-1.547.72-.375.48-.563 1.13-.563 1.952 0 .835.188 1.49.563 1.967.383.48.898.72 1.547.72.644 0 1.156-.24 1.53-.72.376-.476.564-1.132.564-1.968 0-.822-.187-1.474-.562-1.954-.375-.477-.887-.72-1.53-.72zm0-.734c.914 0 1.648.312 2.203.937.55.617.828 1.438.828 2.47 0 1.042-.277 1.87-.828 2.483-.555.617-1.29.922-2.203.922-.93 0-1.668-.305-2.22-.922C.774-1.41.5-2.237.5-3.28c0-1.033.273-1.853.828-2.47.55-.625 1.29-.938 2.22-.938zm0 0"/></symbol><symbol overflow="visible" id="c"><path d="M.89-6.563h.876v2.688H5v-2.688h.89V0H5v-3.125H1.766V0H.89zm0 0"/></symbol></defs><g><path fill="#fff" d="M0 0h300v300H0z"/><path d="M35.25 213.93l5.27-8.65" stroke-width="1.2" stroke="#000" stroke-miterlimit="10" fill="none"/><path d="M40.52 205.28l5.27-8.643M45.79 196.637l-4.852-8.887" stroke-width="1.2" stroke="#00f" stroke-miterlimit="10" fill="none"/><path d="M40.938 187.75l-4.852-8.887" stroke-width="1.2" stroke="#000" stroke-miterlimit="10" fill="none"/><path d="M45.79 196.637l10.12.242" stroke-width="1.2" stroke="#00f" stroke-miterlimit="10" fill="none"/><path d="M55.91 196.88l10.125.24" stroke-width="1.2" stroke="#000" stroke-miterlimit="10" fill="none"/><path d="M42.79 191.137h7v11h-7zm0 0" fill="#fff"/><use xlink:href="#a" x="42.789" y="199.8" fill="#00f"/><path d="M63.94 198.262l4.857 8.886" stroke-width="1.2" stroke="#000" stroke-miterlimit="10" fill="none"/><path d="M68.797 207.148l4.85 8.887" stroke-width="1.2" stroke="#f00" stroke-miterlimit="10" fill="none"/><path d="M68.125 195.98l4.852 8.887" stroke-width="1.2" stroke="#000" stroke-miterlimit="10" fill="none"/><path d="M72.977 204.867l4.85 8.887" stroke-width="1.2" stroke="#f00" stroke-miterlimit="10" fill="none"/><path d="M66.035 197.12l10.54-17.288" stroke-width="1.2" stroke="#000" stroke-miterlimit="10" fill="none"/><path d="M71.738 209.395h8v11h-8zm0 0" fill="#fff"/><use xlink:href="#b" x="71.738" y="218.058" fill="#f00"/><path d="M76.574 179.832L66.87 162.06M79.785 175.77l-7.762-14.22M96.816 180.313l-20.242-.48M66.87 162.06l10.54-17.294M77.41 144.766l20.246.484M79.32 149.578l16.196.387M97.656 145.25l9.703 17.773M97.656 145.25l10.54-17.29M107.36 163.023l-10.544 17.29M102.234 162.273l-8.43 13.832M108.195 127.96l20.243.48M110.332 123.246l16.195.383M98.492 110.188l9.703 17.773M128.438 128.44l10.542-17.288M138.98 111.152l-9.707-17.773M142.19 107.09l-7.764-14.22M159.223 111.633l-20.243-.48M129.273 93.38l-20.242-.485M129.273 93.38l5.27-8.646" stroke-width="1.2" stroke="#000" stroke-miterlimit="10" fill="none"/><path d="M134.543 84.734l5.273-8.644" stroke-width="1.2" stroke="#00f" stroke-miterlimit="10" fill="none"/><path d="M109.03 92.895l-10.538 17.293M112.047 97.105l-8.434 13.832" stroke-width="1.2" stroke="#000" stroke-miterlimit="10" fill="none"/><path d="M139.816 76.09l10.12.238" stroke-width="1.2" stroke="#00f" stroke-miterlimit="10" fill="none"/><path d="M149.938 76.328l10.12.242" stroke-width="1.2" stroke="#000" stroke-miterlimit="10" fill="none"/><path d="M141.727 80.898l8.097.196" stroke-width="1.2" stroke="#00f" stroke-miterlimit="10" fill="none"/><path d="M149.824 81.094l8.098.19" stroke-width="1.2" stroke="#000" stroke-miterlimit="10" fill="none"/><path d="M136.816 70.59h7v11h-7zm0 0" fill="#fff"/><use xlink:href="#a" x="136.816" y="79.253" fill="#00f"/><path d="M160.06 76.57l4.85 8.887" stroke-width="1.2" stroke="#000" stroke-miterlimit="10" fill="none"/><path d="M164.91 85.457l4.852 8.887M169.762 94.344l-5.27 8.644" stroke-width="1.2" stroke="#00f" stroke-miterlimit="10" fill="none"/><path d="M164.492 102.988l-5.27 8.645" stroke-width="1.2" stroke="#000" stroke-miterlimit="10" fill="none"/><path d="M164.64 93.594l-4.214 6.914" stroke-width="1.2" stroke="#00f" stroke-miterlimit="10" fill="none"/><path d="M160.426 100.508l-4.22 6.918" stroke-width="1.2" stroke="#000" stroke-miterlimit="10" fill="none"/><path d="M166.762 88.844h7v11h-7zm0 0" fill="#fff"/><use xlink:href="#a" x="166.762" y="97.507" fill="#00f"/><path d="M159.223 111.633l4.85 8.887" stroke-width="1.2" stroke="#000" stroke-miterlimit="10" fill="none"/><path d="M164.074 120.52l4.852 8.886M168.926 129.406l10.12.242" stroke-width="1.2" stroke="#00f" stroke-miterlimit="10" fill="none"/><path d="M179.047 129.648l10.125.243" stroke-width="1.2" stroke="#000" stroke-miterlimit="10" fill="none"/><path d="M161.926 123.906h14v11h-14zm0 0" fill="#fff"/><g fill="#00f"><use xlink:href="#a" x="161.926" y="132.569"/><use xlink:href="#c" x="168.903" y="132.569"/></g><path d="M189.172 129.89l9.703 17.774M198.875 147.664l20.242.484M219.117 148.148l12.29-16.093M224.133 149.43l9.832-12.875M230.625 164.81l-11.508-16.662M231.406 132.055l9.555 3.355" stroke-width="1.2" stroke="#000" stroke-miterlimit="10" fill="none"/><path d="M240.96 135.41l9.552 3.36M250.512 138.77l-.242 10.12" stroke-width="1.2" stroke="#00f" stroke-miterlimit="10" fill="none"/><path d="M250.27 148.89l-.243 10.122" stroke-width="1.2" stroke="#000" stroke-miterlimit="10" fill="none"/><path d="M243.512 133.27h14v11h-14zm0 0" fill="#fff"/><g fill="#00f"><use xlink:href="#a" x="243.512" y="141.933"/><use xlink:href="#c" x="250.489" y="141.933"/></g><path d="M250.027 159.012l-19.402 5.797M249.453 164.156l-15.523 4.637M264.75 172.918l-14.723-13.906M230.625 164.81l-4.68 19.698M225.945 184.508l14.723 13.906M230.688 182.438l11.777 11.12M240.668 198.414l19.402-5.797M240.668 198.414l-2.344 9.852" stroke-width="1.2" stroke="#000" stroke-miterlimit="10" fill="none"/><path d="M238.324 208.266l-2.34 9.847" stroke-width="1.2" stroke="#f00" stroke-miterlimit="10" fill="none"/><path d="M260.07 192.617l4.68-19.7M255.902 189.547l3.743-15.762" stroke-width="1.2" stroke="#000" stroke-miterlimit="10" fill="none"/><path d="M235.984 218.113l-9.7 2.9" stroke-width="1.2" stroke="#f00" stroke-miterlimit="10" fill="none"/><path d="M226.285 221.012l-9.703 2.898" stroke-width="1.2" stroke="#000" stroke-miterlimit="10" fill="none"/><path d="M231.984 212.613h8v11h-8zm0 0" fill="#fff"/><use xlink:href="#b" x="231.984" y="221.276" fill="#f00"/></g></svg>
